X:1
T:Title
%%score { ( 1 4 5 ) | ( 2 3 6 ) }
L:1/8
M:6/8
K:Ab
V:1 treble nm="Grand Piano"
V:4 treble 
V:5 treble 
V:2 bass 
V:3 bass 
V:6 bass 
V:1
 z3 z2[Q:1/4=87] [CE]/[CE]/ | [CE][Ec][DB] [DB][CA][DF] | [CE][A,C][DF] [CE]2 [CE] | EFG Adc | %4
 B3- B2 E | [CE][Ec][DB] [DB][CA][DF] | [CE][A,C][DF] [CE]2 [CE] | [DF][FA][=Ed] cAB | [CA]6 | %9
 B2 E/E/ B2 c | [CEB][CEA][CE] [CEA]3 | [A,F][A,F][A,F] [Fd][Fc][FB] |[M:7/8] A2 c B3 [Ge] | %13
[M:3/4] ed cc Bc |[M:7/8] [Fe]>[Fd][Fd] [Fd]3 F | %15
[M:27/32] E/c/ z/4 z/4 z/ A/-<A/[GB]/e/4-e/4-e/4-e/4-e/-<e/-[D-E-G-e]/[DEG]3/4 | %16
[M:3/4] (3:2:2[CEA-]3/2[GA-]3/2 A3- A/4 z/4 z/ |] %17
V:2
 z3 z2 [A,,A,]/[A,,G,]/ | [A,,A,][A,,A,][A,,E,] [A,,E,][A,,E,][A,,A,] | %2
 [A,,A,][A,,E,][A,,A,] [A,,A,]2 [A,,A,] | [E,G,D][E,A,D][E,B,D][K:treble] [A,C][A,F][K:bass][A,E] | %4
 [E,G,E]3- [E,G,E]2 [E,G,D] | [A,,A,][A,,A,][A,,E,] [A,,E,][A,,A,][A,,A,] | %6
 [A,,A,][A,,E,][A,,A,] [A,,A,]2 [A,,A,] | [D,A,][D,A,][D,A,] [E,A,E][E,A,C][E,G,D] | [A,,E,]6 | %9
 [E,G,E]2 [E,G,]/[E,G,]/ [E,G,E]2 [E,G,E] | A,,A,,A,, A,,3 | D,D,D, [B,,B,][C,=A,][D,B,] | %12
[M:7/8] C2 z z z z2 |[M:3/4][K:treble] [A,CA][A,FA] [A,EA][A,EA] [A,DG][A,C_G] | %14
[M:7/8][K:bass] [D,A,]>[D,A,][D,A,] [D,A,]3 [D,A,D] | %15
[M:27/32] z/4 z/4 z/4 z/4 z/4 z/4 z/4 z/4 z/4 z/4 z/4 z/4 z/ B,/4-B,/4-B,/4-B,/4-B,/4-B,/4-B,/-<B,/ z/4 z/ | %16
[M:3/4] (3z z/ E3/2 D-D/4 z/4 z/ z2 |] %17
V:3
 x6 | x6 | x6 | x3[K:treble] x2[K:bass] x | x6 | x6 | x6 | x6 | x6 | x6 | x6 | x6 | %12
[M:7/8] [E,E]2- [E,-A,E-] [E,G,E]3 [E,D] |[M:3/4][K:treble] x6 |[M:7/8][K:bass] x7 | %15
[M:27/32] [E,A,C]/[E,A,E]/ z/4 z/4 z/ [E,CE]/-<[E,CE]/[E,B,]/E,/4-E,/4-E,/4-E,/4-E,/-<E,/E,/4-E,/-<E,/ | %16
[M:3/4] z2 z C2- C/4 z/4 z/ |] %17
V:4
 x6 | x6 | x6 | x6 | x6 | x6 | x6 | x6 | x6 | x6 | x6 | x6 |[M:7/8] x7 |[M:3/4] x6 |[M:7/8] x7 | %15
[M:27/32] z/4 z/4 z/4 z/4 z/4 z/4 z/4 z/4 z/4 z/4 z/4 z/4 z/ G/4-G/4-G/4-G/4-G/-<G/ z/4 z/4 z/4 z/ | %16
[M:3/4] z2 F-F/4 z/4 z/ z2 |] %17
V:5
 x6 | x6 | x6 | x6 | x6 | x6 | x6 | x6 | x6 | x6 | x6 | x6 |[M:7/8] x7 |[M:3/4] x6 |[M:7/8] x7 | %15
[M:27/32] x27/4 |[M:3/4] z2 z E2- E/4 z/4 z/ |] %17
V:6
 x6 | x6 | x6 | x3[K:treble] x2[K:bass] x | x6 | x6 | x6 | x6 | x6 | x6 | x6 | x6 |[M:7/8] x7 | %13
[M:3/4][K:treble] x6 |[M:7/8][K:bass] x7 |[M:27/32] x27/4 |[M:3/4] A,,4- A,,-A,,/4 z/4 z/ |] %17

